X: 10132
T: JENNY'S BAWBEE.     a Reel.
R: reel
B: "Edinburgh Repository of Music" v.1 p.13 #2
F: http://digital.nls.uk/special-collections-of-printed-music/pageturner.cfm?id=87776133
Z: 2015 John Chambers <jc:trillian.mit.edu>
M: C|
L: 1/8
K: D
f |\
a>bag fddf | B/B/B e>d cAAf |\
a>bag fddf | B/B/B cA d3 :|
|: d/e/ |\
f>dg>e fddf | g>fe>d cAAe |\
f>dg>e fddf | B/B/B cA d3 :|

%%sep 2 1 500
%%sep 1 1 500

